X:1
T:Your Best Friend Is Always Near
T:Your Best Friend Is Always Near
T:Edward Othello Excell
T:Isabel C. Allam, 1916
T:Public Domain Courtesy of the Cyber Hymnal™
C:Edward Othello Excell
Z:Public Domain
Z:Courtesy of the Cyber Hymnal™
%%score ( 1 2 ) 3
L:1/8
Q:1/4=110
M:4/4
K:Ab
V:1 treble 
V:2 treble 
V:3 bass 
V:1
 [Ec]3 [DB] [DB] [CA]3 | [FA]3 [EG] [EG] [DF]3 | [CE]3 [=B,=D] [CE]2 [Ec]2 | [Ec]3 [EB] [EB]4 | %4
w: 1.~When the sha- dows|’round you ga- ther,|When the day is|long and drear,|
w: 2.~When your cour- age|al- most fails you,|When you need a|word of cheer,|
w: 3.~When your fond- est|hopes have per- ished,|When so free- ly|falls the tear,|
w: 4.~When the val- ley|of the sha- dow|You are tread- ing,|do not fear;|
 [Ec]3 [DB] [DB] [CA]3 | [FA]3 [EG] [EG] [DF]3 | [CE]3 [=B,=D] [CE]2 [Ec]2 | [Dc] [DB]3 [CA]4 || %8
w: In the morn- ing,|or at mid- night,|Your best friend is|al- ways near.|
w: There is One who|will not leave you:|Your best friend is|al- ways near.|
w: He who knows and|feels your sor- row—|Your best friend— is|al- ways near.|
w: One there is who|will go with you:|Your best friend is|al- ways near.|
"^Refrain" [DB]3 [DE] E4 | [Ec]3 [CE] E4 | [Ff]3 [Fe] [Fd]2 [Fc]2 | [FB]2 [FA]2 [Ge]4 | %12
w: ||||
w: Al- ways near,|al- ways near,|Your best friend is|al- ways near;|
w: ||||
w: ||||
 [Ec]3 [DB] [DB] [CA]3 | [FA]3 [EG] [EG] [DF]3 | [CE]3 [=B,=D] [CE]2 [Ec]2 | [Dc] [DB]3 [CA]4 |] %16
w: ||||
w: In your glad- ness,|in your sad- ness,|Your best friend is|al- ways near.|
w: ||||
w: ||||
V:2
 x8 | x8 | x8 | x8 | x8 | x8 | x8 | x8 || x4 (C>C B,2) | x4 (C>B, A,2) | x8 | x8 | x8 | x8 | x8 | %15
 x8 |] %16
V:3
 [A,,A,]3 [A,,E,] [A,,E,] [A,,A,]3 | [D,A,]3 [D,A,] [D,A,] [D,A,]3 | %2
w: ~ ~ ~ ~|~ ~ ~ ~|
 [A,,A,]3 [A,,A,] [A,,A,]2 [A,,A,]2 | [E,A,]3 [E,G,] [E,G,]4 | [A,,A,]3 [A,,E,] [A,,E,] [A,,A,]3 | %5
w: ~ ~ ~ ~|~ ~ ~|~ ~ ~ ~|
 [D,A,]3 [D,A,] [D,A,] [D,A,]3 | [E,A,]3 [_F,A,] [E,A,]2 [E,A,]2 | [E,G,] [E,G,]3 [A,,A,]4 || %8
w: ~ ~ ~ ~|~ ~ ~ ~|~ ~ ~|
 [E,G,]3 [E,G,] [E,B,]>[E,A,] [E,G,]2 | [A,,A,]3 [A,,A,] [A,,E]>[A,,D] [A,,C]2 | %10
w: He is al- ways near,|He is al- ways near,|
 [=A,,C]3 [A,,C] [B,,B,]2 [C,=A,]2 | [D,B,]2 [=D,B,]2 [E,_D]4 | [A,,A,]3 [A,,E,] [A,,E,] [A,,A,]3 | %13
w: |||
 [D,A,]3 [D,A,] [D,A,] [D,A,]3 | [E,A,]3 [_F,A,] [E,A,]2 [E,A,]2 | [E,G,] [E,G,]3 [A,,A,]4 |] %16
w: |||

